X: 1
T: Reel du p\`ere Verret
T: Verret's Reel
O: Qu\'ebec
R: reel
Z: 2007 John Chambers <jc:trillian.mit.edu> from Roaring Jelly
M: C|
L: 1/8
K: D
de \
| "D"fedf edBc | "Bm"dB (3BBB "G"BAFD | "D"A,DFA cBAG |1,3 "Em7"FAde "A7"fe \
                                                     :|2,4 "A7"FDEF D2 :|
|: AG \
| "D"FDA,D FDDF | "C"E=CEG B2AG |1,3 "D"FDAD FAAA | "G"BA"A"cA "D"d2 \
                               :|2,4 "D"FAdf "Em7"edce | "A7"dfec "D"d2 :|
